packages/IcoMoon/src/MagicWandIcon/index.svg

<svg version="1.1" xmlns="http://www.w3.org/2000/svg" width="16" height="16" viewBox="0 0 16 16">
<path d="M4 3l-2-2h-1v1l2 2zM5 0h1v2h-1zM9 5h2v1h-2zM10 2v-1h-1l-2 2 1 1zM0 5h2v1h-2zM5 9h1v2h-1zM1 9v1h1l2-2-1-1zM15.781 13.781l-9.939-9.939c-0.292-0.292-0.769-0.292-1.061 0l-0.939 0.939c-0.292 0.292-0.292 0.769 0 1.061l9.939 9.939c0.292 0.292 0.769 0.292 1.061 0l0.939-0.939c0.292-0.292 0.292-0.769 0-1.061zM7.5 8.5l-3-3 1-1 3 3-1 1z"></path>
</svg>

<svg xmlns="http://www.w3.org/2000/svg" viewBox="0 0 16 16">
  <path d="M4 3L2 1H1v1l2 2zm1-3h1v2H5zm4 5h2v1H9zm1-3V1H9L7 3l1 1zM0 5h2v1H0zm5 4h1v2H5zM1 9v1h1l2-2-1-1zm14.781 4.781L5.842 3.842a.752.752 0 00-1.061 0l-.939.939a.752.752 0 000 1.061l9.939 9.939a.752.752 0 001.061 0l.939-.939a.752.752 0 000-1.061zM7.5 8.5l-3-3 1-1 3 3-1 1z"/>
</svg>
